dist/img/svg/envelope.svg

<svg width="37" height="29" viewBox="0 0 37 29" xmlns="http://www.w3.org/2000/svg">
<path d="M33.7952 25.1071C33.7952 25.4487 33.4938 25.75 33.1523 25.75H3.58086C3.23935 25.75 2.93801 25.4487 2.93801 25.1071V9.67856C3.35988 10.1607 3.82193 10.6027 4.32417 11.0045C7.19693 13.2143 10.0898 15.4643 12.8822 17.7946C14.3889 19.0603 16.2572 20.6071 18.3465 20.6071H18.3666H18.3867C20.476 20.6071 22.3443 19.0603 23.851 17.7946C26.6434 15.4643 29.5362 13.2143 32.409 11.0045C32.9112 10.6027 33.3733 10.1607 33.7952 9.67856V25.1071ZM33.7952 3.99329C33.7952 5.70088 32.1478 7.93079 30.842 8.95535C28.1501 11.0647 25.4581 13.1942 22.7862 15.3237C21.7215 16.1875 19.7929 18.0357 18.3867 18.0357H18.3666H18.3465C16.9402 18.0357 15.0117 16.1875 13.9469 15.3237C11.2751 13.1942 8.5831 11.0647 5.89113 8.95535C4.08309 7.52901 2.93801 5.54017 2.93801 3.24999C2.93801 2.90847 3.23935 2.60713 3.58086 2.60713H33.1523C33.9157 2.60713 33.7952 3.49106 33.7952 3.99329ZM36.3666 3.24999C36.3666 1.48213 34.9202 0.0357056 33.1523 0.0357056H3.58086C1.81301 0.0357056 0.366577 1.48213 0.366577 3.24999V25.1071C0.366577 26.875 1.81301 28.3214 3.58086 28.3214H33.1523C34.9202 28.3214 36.3666 26.875 36.3666 25.1071V3.24999Z" fill="white"/>
</svg>

<svg width="37" height="29" viewBox="0 0 37 29" xmlns="http://www.w3.org/2000/svg"><path d="M33.795 25.107a.661.661 0 01-.643.643H3.581a.661.661 0 01-.643-.643V9.68c.422.482.884.924 1.386 1.325 2.873 2.21 5.766 4.46 8.558 6.79 1.507 1.266 3.375 2.813 5.464 2.813h.04c2.09 0 3.958-1.547 5.465-2.812 2.792-2.33 5.685-4.58 8.558-6.79.502-.402.964-.844 1.386-1.326v15.428zm0-21.114c0 1.708-1.647 3.938-2.953 4.962a1287.32 1287.32 0 00-8.056 6.369c-1.065.864-2.993 2.712-4.4 2.712h-.04c-1.406 0-3.334-1.849-4.4-2.712-2.67-2.13-5.363-4.26-8.055-6.369C4.083 7.53 2.938 5.54 2.938 3.25a.66.66 0 01.643-.643h29.571c.764 0 .643.884.643 1.386zm2.572-.743A3.224 3.224 0 0033.152.036H3.581A3.224 3.224 0 00.367 3.25v21.857a3.224 3.224 0 003.214 3.214h29.571a3.224 3.224 0 003.215-3.214V3.25z" fill="#fff"/></svg>08309 7.52901 2.93801 5.54017 2.93801 3.24999C2.93801 2.90847 3.23935 2.60713 3.58086 2.60713H33.1523C33.9157 2.60713 33.7952 3.49106 33.7952 3.99329ZM36.3666 3.24999C36.3666 1.48213 34.9202 0.0357056 33.1523 0.0357056H3.58086C1.81301 0.0357056 0.366577 1.48213 0.366577 3.24999V25.1071C0.366577 26.875 1.81301 28.3214 3.58086 28.3214H33.1523C34.9202 28.3214 36.3666 26.875 36.3666 25.1071V3.24999Z" fill="white"/>
</svg>
